X: 20953
T: Joys Of Quebec
R: reel
M: 4/4
K: Amajor
ee|:e2cc c2ee|eccc c2ec|f2e2 dece|deBB B2ee|e2BB B2dd|
d2BB B2ef|1 g2ff efed|c2AA A2ee:|2 g2ff edcB|A2B2 c2d2||
|:e4 f3c|e4- e2cc|B2c2 d3B|c4 c2BB|
A2cA G2A2|B3c BABc|d2e2 f2g2|1 f/g/fe2 c2d2:|2 a2A2 B2c2||
d4- d2E2|G2B2 f3c|e4 cecB|c2A2 B2c2|
d4- d2E2|G2B2 f3c|e4 ABcd|e4 f3c|
e4- e2cc|B2c2 d3B|c4 cdcB|
A2BA G2A2|B3c BABc|d2e2 f2g2|a4- a2ee||

